X:1
T:Title
%%score { ( 1 3 ) | ( 2 4 ) }
L:1/8
Q:1/4=126
M:12/8
K:C
V:1 treble nm="Grand Piano"
V:3 treble 
V:2 bass 
V:4 bass 
V:1
 [EG]3 [FA]3 [EG]3 [CE][DF][_E^F] | [EG]3 [FA]3 [EG]2 [G,DF] [G,CE]3 | [B,DF]3 [B,G]3 [DB]3 [Fd]3 | %3
w: Chas.~H.~Gabriel * * * * *|||
 [Ec]2 [EB] [FA]2 [Fc] [EG]6 | [EG]3 [FA]3 [EG]3 [CE][DF][_E^F] | [EG]3 [FA]3 [EG]2 [DF] E3 | %6
w: |||
 D3 G3 B3 c3 | B2 A G2 ^F [G,G]6 | c3- [Ec]3 [EG]3 G3 | A6 c6 | B2 c B2 A B3 A3 | %11
w: |||||
 [EG]2 [FA] [EG]2 [_E^F] [=EG]3 [CE]3 | c6 z6 | A6 c6 | B2 c B2 A G3 [Fd]3 | [Ec]6- [Ec]3 z3 |] %16
w: |||||
V:2
 [C,C]3 [C,C]3 [C,C]3 [C,G,][C,G,][C,G,] | [C,C]3 [C,C]3 [C,C]2 C, C,3 | %2
 G,,3 [G,,G,]3 [G,,G,]3 [G,,G,]3 | [C,G,]2 [C,G,] [C,A,]2 [C,A,] [C,C]6 | %4
 [C,C]3 [C,C]3 [C,C]3 [C,G,][C,G,][C,G,] | [C,C]3 [C,C]3 [C,C]2 [C,G,] [C,G,C]3 | %6
 [D,G,B,]3 [D,B,D]3 [D,G,D]3 [D,A,D]3 | [D,G,D]2 [D,CD] [D,B,D]2 [D,A,C] z3 F3 | %8
 [C,G,]3 [C,G,]3 [C,C]3 [E,C]3 | [F,CF]3 [F,C]3 [F,A,F]3 [F,A,]3 | %10
 [G,G]2 [G,A] [G,G]2 [G,F] [G,G]3 [G,B,F]3 | [C,C]2 [C,C] [C,C]2 [C,C] [C,C]3 [C,G,]3 | %12
 [C,G,]3 [C,G,]3 [C,C]3 [E,C]3 | [F,CF]3 [F,C]3 [F,A,F]3 [F,A,]3 | %14
 [G,F]2 [G,F] [G,DF]2 [G,CF] [G,B,F]3[K:bass] [G,,G,]3 | [C,G,]6- [C,G,]3 z3 |] %16
V:3
 x12 | x12 | x12 | x12 | x12 | x12 | x12 | z6 B,3 z3 | E3 z3 z6 | z3 F3 z3 F3 | x12 | x12 | %12
 E3 E3 [EG]3 G3 | z3 F3 z3 F3 | x12 | x12 |] %16
V:4
 x12 | x12 | x12 | x12 | x12 | x12 | x12 | z6 G,,6 | x12 | x12 | x12 | x12 | x12 | x12 | %14
 x9[K:bass] x3 | x12 |] %16

